X: 8
T: Mouth Of The Tobique, The
C: Francis Sowish
Z: Sean Perry
S: https://thesession.org/tunes/423#setting52317
R: reel
M: 4/4
L: 1/8
K: Gmaj
D/E/F|:GFGA B/^c/d ed|BdBG DGBG|ABAG FDEF |GABc d2 D/E/F|
GFGA B/^c/d ed|BdBG DGBG|ABAG FDEF|1 GBAF G2 D/E/F:|2 GBAF G2 A/B/d||
|:g2 gf g2ag|fdAd f2gf|edcB AGFD|GABc d2 ef|
g2 gf g2ag|fdAd f2gf|edcB AGFD|1 GBAF G2 A/B/d:|2 GBAF G2 D/E/F||
|:LG2 LBGG LcGG|LBGG LcGG LBG|ABAG FDEF|GABc d2 D/E/F|
LG2 LBGG LcGG|LBGG LcGG LBG|ABAG FDEF|GBAF G2 D/E/F:|

%-------------------- TUNE SEPARATOR --------------------%

